X:1
T:Little Morning-Wanderer
T:Little Morning-Wanderer
T:Album for the Young
T:Schumann, Op. 68, No. 17
C:Schumann, Op. 68, No. 17
%%score { ( 1 3 ) | ( 2 4 ) }
L:1/8
Q:1/4=78
M:2/4
K:A
V:1 treble nm="Piano" snm="Pno."
V:3 treble 
V:2 bass 
V:4 bass 
V:1
!f!"^Frisch und kräftig" (!3![Ac]/>e/) | [Be]!f!!5!d!4![EAc]!5![DEGB] | %2
 !2!!3!!5![CEA]!1!!4![DF][CE] (3(!4![Ec]/B/A/) | [EBe] (3(!4![Ec]/B/A/) !3![EG]!2!!4![^DF] | %4
 E3!f! !4![EAc]/>[EBe]/ | [EBe]d[CAc]!4!!5![DEGB] | [CEA][DF][CE] (3([Ec]/B/A/) | %7
 [EBe] (3(!4![Ec]/B/A/) !3![EG][A,B,^DF] | [G,B,E]3 |: E/>!5!B/ | !5!B!4!A!3!G!3!F | %11
 !1!!3![DF]!3!G/!4!^A/ !5!B([EF^Ac]/>d/) | %12
!<(! !2!!4!!5![FBd]!1!!5![E^Ac]!2!!5![FB](!3![B,F]/>=A/)!<)! | %13
!>(! ([B,-FA]2 [B,G])!>)!!f! !4![=GAc]/>!5!e/ | [=GAce]!5![FAd]!4![EAc]!5![D^GB] | %15
 !5!!4![CFA]!1!!4![DF]!3![CE] (3(!4![EAc]/B/A/) | [Aa]3 (3([EAc]/B/A/) | [Aa]3 !4![Afa]/!3![Fdf]/ | %18
 [Ece]!4![DBd]!3![CAc][B,^EGB] | [A,FA][G,DF][A,C=E]!ff! (3(!3!A/B/c/) | %20
 D!f! [Adf]!f![Ace]!f! [B,DEG] |1!f! [CEA]3 :|2 [CEA] z3/4"^Schwächer" !2!!4![CE]/4 E2- || %23
 E7/4!4!E/4 E2- | E7/4!2!!4![CE]/4 ([CE]!3!!5![DF] | !2!A,!4!D!3!CE) | z z3/4 [CE]/4 E2- | %27
 E7/4E/4 E2- | E7/4[CE]/4 ([CE][DF] | A,DCE) | (A,DCE) | C2 z2 |] %32
V:2
 z | z2 z!f! (!4!E,/>!1!A,/) | !1!A,!5!D,A, !2!!1![A,C] | !3![G,B,]A,!1!B,[B,,A,] | %4
 [E,G,]3 !2![A,C]/>!3![G,B,]/ | [G,B,]!4!!2![F,A,]!5!!2![E,A,] (!4!E,/>!1!A,/) | %6
 !1!A,!5!!2![D,A,]!1!A, [A,C] | [G,B,][A,C]B, (!5!B,,/>!2!E,/) | !1!E,B,,E,, |: !3!G,- | %10
 G,A, B,(3^A,/B,/C/ | !4!F, x x !1!C | !1!B,!2!C!1!D!1!^D | [E,E]3 [A,,A,]- | [A,,A,]!3!D,E,^E, | %15
 !3!F,G,A, !3![=G,A,C]- | [G,A,C](3!4![F,D]/=G,/A,/ D, [G,A,C]- | %17
 [G,A,C](3[F,D]/=G,/A,/ D, [D,,D,] | [E,,E,][^E,,^E,][F,,F,][^G,,^G,] | %19
 !5!A,,B,,C, (3(!3!A,/B,/C/) | D, [D,D][E,E] E, |1 A,, (3(C,/D,/E,/) A,, :|2 %22
 A,,(E,/>A,/) (!1!A,!1!G,) || A,,(E,/>B,/) (!1!B,!1!A,) | A,, E,3- | E,3 E, | %26
 A,,!pp!(E,/>A,/) (A,G,) | A,,(E,/>B,/) (B,A,) | A,, E,3- | E,2 E,2- | E,2 E,2 | E,2 z2 |] %32
V:3
 x | G(F/>A/) x2 | x4 | x4 | x4 | E(D/>A/) x2 | x4 | x4 | x3 |: [DE]- | [DE][CE]E!2!E | %11
 x !2!F/!1!E/ !1!D x | x4 | x4 | x4 | x4 | x4 | x4 | x4 | x4 | x4 |1 x3 :|2 x2 (CB,) || %23
 z7/4 !3!D/4 (DC) | x4 | !1!F,!1!G, !1!A,2 | x2 (CB,) | z7/4 D/4 (DC) | x4 | F,G, A,2 | F,G, A,2 | %31
 A,2 x2 |] %32
V:4
 x | x4 | x4 | x4 | x4 | x4 | x4 | x4 | x3 |: !5!E,- | E,4 | E,4 | !5!E,4 | x4 | x4 | x4 | x4 | %17
 x4 | x4 | x4 | x4 |1 x3 :|2 A,,4 || A,,4 | A,,4- | A,,4 | A,,4 | A,,4 | A,,4- | A,,2 A,,2- | %30
 A,,2 A,,2 | A,,2 x2 |] %32

